src/components/Icon/svg-icon/social/facebook.svg

<svg xmlns="http://www.w3.org/2000/svg" width="24" height="24" viewBox="0 0 24 24">
  <path fill="#3B579D" fill-rule="evenodd" d="M18.0029297,3 L5.99707031,3 C5.58691201,3 5.1987323,3.07910077 4.83251953,3.23730469 C4.46630676,3.3955086 4.14843885,3.60937365 3.87890625,3.87890625 C3.60937365,4.14843885 3.3955086,4.46630676 3.23730469,4.83251953 C3.07910077,5.1987323 3,5.58691201 3,5.99707031 L3,18.0029297 C3,18.413088 3.07910077,18.8012677 3.23730469,19.1674805 C3.3955086,19.5336932 3.60937365,19.8515612 3.87890625,20.1210938 C4.14843885,20.3906263 4.46630676,20.6044914 4.83251953,20.7626953 C5.1987323,20.9208992 5.58691201,21 5.99707031,21 L12,21 L12,13.125 L9.75,13.125 L9.75,10.875 L12,10.875 L12,9.1875 C12,8.80077932 12.0732415,8.43603687 12.2197266,8.09326172 C12.3662117,7.75048657 12.5683581,7.45312626 12.8261719,7.20117188 C13.0781263,6.94335809 13.3754866,6.74121167 13.7182617,6.59472656 C14.0610369,6.44824146 14.4257793,6.375 14.8125,6.375 L17.625,6.375 L17.625,8.625 L14.8125,8.625 C14.7363277,8.625 14.6630863,8.63964829 14.5927734,8.66894531 C14.5224606,8.69824233 14.4638674,8.73925755 14.4169922,8.79199219 C14.3642575,8.83886742 14.3232423,8.89746059 14.2939453,8.96777344 C14.2646483,9.03808629 14.25,9.11132774 14.25,9.1875 L14.25,10.875 L17.34375,10.875 L16.78125,13.125 L14.25,13.125 L14.25,21 L18.0029297,21 C18.413088,21 18.8012677,20.9208992 19.1674805,20.7626953 C19.5336932,20.6044914 19.8515612,20.3906263 20.1210938,20.1210938 C20.3906263,19.8515612 20.6044914,19.5336932 20.7626953,19.1674805 C20.9208992,18.8012677 21,18.413088 21,18.0029297 L21,5.99707031 C21,5.58691201 20.9208992,5.1987323 20.7626953,4.83251953 C20.6044914,4.46630676 20.3906263,4.14843885 20.1210938,3.87890625 C19.8515612,3.60937365 19.5336932,3.3955086 19.1674805,3.23730469 C18.8012677,3.07910077 18.413088,3 18.0029297,3 Z"/>
</svg>

<svg xmlns="http://www.w3.org/2000/svg" width="24" height="24"><path fill="#3B579D" fill-rule="evenodd" d="M18.003 3H5.997c-.41 0-.798.08-1.164.237a3.036 3.036 0 00-.954.642 3.04 3.04 0 00-.642.954A2.905 2.905 0 003 5.997v12.006c0 .41.08.798.237 1.164.159.367.372.685.642.954.27.27.587.483.954.642.366.158.754.237 1.164.237H12v-7.875H9.75v-2.25H12V9.187a2.755 2.755 0 01.826-1.986 2.755 2.755 0 011.986-.826h2.813v2.25h-2.813a.566.566 0 00-.22.044.476.476 0 00-.175.123.476.476 0 00-.123.176.566.566 0 00-.044.22v1.687h3.094l-.563 2.25H14.25V21h3.753c.41 0 .798-.08 1.164-.237a3.03 3.03 0 00.954-.642c.27-.27.483-.587.642-.954.158-.366.237-.754.237-1.164V5.997c0-.41-.08-.798-.237-1.164a3.036 3.036 0 00-.642-.954 3.036 3.036 0 00-.954-.642A2.905 2.905 0 0018.003 3z"/></svg>
